src/images/icons/brain.svg

<svg fill="none" height="43" viewBox="0 0 42 43" width="42" xmlns="http://www.w3.org/2000/svg"><g fill="#10182e"><path d="m19.6842 2.2382c-.8257-1.09966-2.0297-1.854306-3.3792-2.11816-1.3496-.263853-2.7491-.01819-3.9282.689534-1.179.707726-2.0539 1.827286-2.45573 3.142416-.4018 1.31513-.30196 2.73251.28023 3.97833.0923.17413.1375.36935.1311.56632-.0063.19698-.0641.38887-.1674.55667-.1034.1678-.24878.30568-.42183.4-.17304.09431-.36772.14178-.56475.13771-.21482-.00605-.4241-.0695-.60609-.18378-.182-.11428-.33008-.2752-.42884-.46606-.4592-.977-.71314-2.0378-.74612-3.11683-.9013.11865-1.76528.43489-2.53021.92613-.76493.49123-1.41193 1.14534-1.89478 1.9156-.48284.77025-.78962 1.63762-.89841 2.54022-.10878.9025-.0169 1.818.2691 2.6809 1.14216-.5919 2.40809-.9053 3.69445-.9146.18075-.0594.373-.0751.56099-.0458.18799.0292.36636.1027.52047.2142.15411.1116.27957.2581.36609.4276.08651.1694.13162.357.13162.5472 0 .1903-.04511.3778-.13162.5473-.08652.1694-.21198.3159-.36609.4275s-.33248.185-.52047.2143-.38024.0136-.56099-.0458c.60684.9628.90495 2.0881.85442 3.2251-.02425.3022-.16166.5841-.38477.7894-.22311.2052-.51547.3187-.81863.3177-.3022-.0242-.5841-.1616-.78936-.3847-.20526-.2232-.31875-.5155-.31778-.8187.03713-.4839-.03928-.9698-.22314-1.419-.18385-.4492-.47007-.8493-.83586-1.1683-1.25204.5704-2.27077 1.5527-2.886416 2.7831-.615643 1.2305-.791006 2.6347-.496863 3.9788s1.040029 2.5467 2.113339 3.4075 2.40921 1.3278 3.78506 1.3231c.15014 0 .2988.0296.4375.087.13871.0575.26474.1417.37089.2479.10616.1061.19037.2322.24783.3709.05745.1387.08702.2873.08702.4375 0 .1501-.02957.2988-.08702.4375-.05746.1387-.14167.2647-.24783.3709-.10615.1061-.23218.1903-.37089.2478-.1387.0574-.28736.087-.4375.087-.8164-.0034-1.62768-.1292-2.40681-.3731-.55985.6503-.92215 1.4471-1.04418 2.2965-.12204.8493.00128 1.7159.3554 2.4975s.9243 1.4456 1.64333 1.9139 1.55694.7213 2.41499.7292h.14441c.03595-.5594.13691-1.1127.30085-1.6487.1434-.2134.35138-.3753.59346-.4619s.50554-.0934.75178-.0194c.24623.074.46229.2249.61651.4307.15422.2057.2385.4554.24048.7125-.20079.6447-.27222 1.3228-.2102 1.9952s.25628 1.326.57166 1.9231c.3153.5971.7455 1.1261 1.2659 1.5565.5203.4303 1.1206.7537 1.7663.9514 1.3628.3956 2.8235.2756 4.1036-.337.6114-.2759 1.1565-.6797 1.5987-1.1841.4422-.5045.7711-1.0978.9645-1.7401v-9.3024c-.9-.0972-1.761-.4201-2.5031-.9386-.8909.6578-1.9617 1.0273-3.0687 1.059-.8606-.0024-1.7001-.2668-2.4068-.7582-.2384-.1801-.4013-.4426-.4569-.7362s0-.5974.1561-.8523c.1801-.2384.4426-.4013.7362-.4569s.5974 0 .8523.1561c.3935.2399.8477.3618 1.3085.3511s.9088-.1534 1.2908-.4113c-.4298-.6485-.7245-1.3771-.8664-2.1421-.041-.2965.03-.5976.1991-.8446s.4242-.4221.7155-.4911c.1447-.0277.2936-.0263.4377.0043.1442.0306.2808.0896.4019.1737.121.0841.2241.1914.3031.3159.079.1244.1323.2633.157.4086.1219.7002.4526 1.3472.9486 1.8561.4961.509 1.1344.8561 1.8312.996v-14.2724c-.7727-.4919-1.6512-.793-2.5632-.8785-.3454.3343-.6087.744-.7695 1.1971-.1607.453-.2145.937-.1572 1.4143.0203.1478.0112.2982-.0269.4425s-.1043.2796-.1949.3982-.2038.218-.333.2927c-.1292.0746-.2719.123-.4199.1422h-.1444c-.2725-.012-.5328-.1161-.7383-.2954-.2056-.1793-.3441-.4231-.3929-.6914-.0983-.7815-.0202-1.5752.2286-2.3226-.2221.1165-.4353.2493-.6378.3972-.2535.1573-.5563.2148-.8499.1615-.2935-.0534-.5567-.2139-.7386-.4504-.0891-.1198-.1536-.2562-.1898-.4011-.0361-.1449-.0432-.2956-.0208-.4433.0223-.1476.0737-.2894.1512-.4171.0775-.1278.1795-.2389.3001-.327 1.0811-.7543 2.3355-1.22274 3.6464-1.36161 1.3109-.13888 2.6357.05632 3.8508.56741v-8.123z"/><path d="m38.4333 29.2065c-.7796.242-1.5906.3677-2.4069.3731-.3032 0-.594-.1205-.8083-.3349-.2144-.2144-.3349-.5052-.3349-.8084s.1205-.594.3349-.8084c.2143-.2144.5051-.3348.8083-.3348 1.3655-.0099 2.687-.4839 3.7474-1.3441 1.0604-.8603 1.7967-2.0556 2.0878-3.3897.2912-1.3341.12-2.7275-.4856-3.9514-.6055-1.2239-1.6093-2.2054-2.8465-2.7833-.3629.322-.6479.7221-.8334 1.1704-.1856.4482-.2668.9327-.2376 1.417.001.3031-.1125.5955-.3178.8186-.2052.2231-.4871.3605-.7893.3848-.2959 0-.5801-.1158-.7915-.3228-.2115-.207-.3334-.4885-.3397-.7844-.0618-1.1381.2372-2.2668.8544-3.2251h-.0602c-.1807.0594-.373.0751-.561.0458s-.3663-.1027-.5204-.2143c-.1542-.1115-.2796-.258-.3661-.4275-.0866-.1694-.1317-.357-.1317-.5472 0-.1903.0451-.3778.1317-.5473.0865-.1694.2119-.3159.3661-.4275.1541-.1116.3324-.185.5204-.2143s.3803-.0136.561.0458c1.2836-.0032 2.5497.2979 3.6945.8785.2928-.8628.3898-1.78.284-2.685s-.4118-1.77512-.8957-2.54714c-.484-.77202-1.1338-1.42659-1.9022-1.91621s-1.6362-.802-2.5404-.91446c-.0271 1.07981-.2813 2.14182-.7462 3.11682-.0987.19086-.2468.35179-.4288.46607-.182.11427-.3913.17773-.6061.18377-.1662-.00247-.3301-.03934-.4813-.1083-.1358-.06325-.2577-.15282-.3586-.26354s-.1788-.24037-.2291-.38142c-.0504-.14106-.0723-.29072-.0643-.4403.0079-.14957.0454-.29609.1104-.43104.6312-1.34076.7048-2.87714.2046-4.27209-.366-.9529-.9794-1.79098-1.7771-2.42787-.7977-.636887-1.7508-1.049546-2.7611-1.1954478s-2.0412-.0197682-2.9865.3654018-1.7708 1.015446-2.3914 1.825866v6.40212c.6564-.07109 1.2808-.32083 1.8051-.72204.2485-.18434.5583-.26594.8653-.22784.307.03809.5876.19295.7834.43242.1595.25595.2172.56247.1614.85888-.0557.29641-.2207.5611-.4622.74165-.9275.6954-2.0335 1.1127-3.1891 1.2034v6.5465c1.4024.2707 2.6593 1.0402 3.538 2.1662.9402-.3371 1.9619-.3733 2.9235-.1038.9617.2695 1.8157.8315 2.4437 1.608.0901.117.1563.2505.1947.393.0385.1425.0485.2912.0295.4376s-.0666.2876-.1402.4156c-.0735.128-.1716.2402-.2885.3303-.117.0901-.2505.1562-.393.1947-.1426.0385-.2913.0485-.4376.0295-.1464-.019-.2876-.0666-.4156-.1402s-.2402-.1716-.3303-.2886c-.2355-.3151-.5532-.5593-.9184-.7058-.3651-.1465-.7635-.1896-1.1515-.1245-.1379.0073-.2749.0275-.4091.0601.2016.7406.2507 1.5144.1444 2.2745-.0488.2683-.1874.5121-.3929.6914-.2055.1792-.4658.2834-.7383.2954h-.1565c-.2932-.0556-.5553-.2181-.7354-.4561-.1801-.2379-.2654-.5343-.2393-.8316.0529-.4749.011-.9556-.1233-1.4142s-.3582-.886-.6589-1.2573c-.4482-.5667-1.056-.986-1.745-1.2035v11.9138c.5939.5418 1.3434.8829 2.1421.9747.9602.1202 1.929-.1436 2.6956-.7341.2467-.1771.5512-.2545.8525-.2166.3013.038.5771.1884.7721.4212.173.242.2503.5394.217.8349-.0333.2956-.1749.5683-.3975.7657-1.0369.7899-2.3067 1.2132-3.6102 1.2034-.2725.0176-.5458.0176-.8183 0-.6394-.0759-1.2639-.2463-1.8533-.5055v4.2601h.0843c.2097.6468.5541 1.2418 1.0104 1.7458s1.0143.9057 1.6371 1.1785c1.2884.6131 2.7568.7329 4.1276.3369 1.2975-.3948 2.3857-1.2877 3.0262-2.4831.6406-1.1954.7814-2.5959.3915-3.8949.0056-.2538.0913-.4994.2449-.7015.1535-.2021.3671-.3506.6101-.424s.503-.0681.7428.0151c.2399.0833.4472.2403.5924.4485.1803.534.2974 1.0874.349 1.6487h.1444c.8622.0012 1.7065-.2451 2.4327-.7098s1.3036-1.1282 1.6636-1.9116.4874-1.6537.3671-2.5074-.4832-1.6549-1.0457-2.3083z"/></g></svg>

<svg width="42" height="43" viewBox="0 0 42 43" fill="none" xmlns="http://www.w3.org/2000/svg">
<path d="M19.6842 2.2382C18.8585 1.13854 17.6545 0.383894 16.305 0.12004C14.9554 -0.143813 13.5559 0.10185 12.3768 0.809574C11.1978 1.5173 10.3229 2.63686 9.92107 3.95199C9.51927 5.26712 9.61911 6.6845 10.2013 7.93032C10.2936 8.10445 10.3388 8.29967 10.3324 8.49664C10.3261 8.69362 10.2683 8.88551 10.165 9.05331C10.0616 9.22111 9.91622 9.35899 9.74317 9.45331C9.57013 9.54762 9.37545 9.59509 9.17842 9.59102C8.9636 9.58497 8.75432 9.52152 8.57233 9.40724C8.39033 9.29296 8.24225 9.13204 8.14349 8.94118C7.68429 7.96418 7.43035 6.90338 7.39737 5.82435C6.49607 5.943 5.63209 6.25924 4.86716 6.75048C4.10223 7.24171 3.45523 7.89582 2.97238 8.66608C2.48954 9.43633 2.18276 10.3037 2.07397 11.2063C1.96519 12.1088 2.05707 13.0243 2.34307 13.8872C3.48523 13.2953 4.75116 12.9819 6.03752 12.9726C6.21827 12.9132 6.41052 12.8975 6.59851 12.9268C6.7865 12.956 6.96487 13.0295 7.11898 13.141C7.27309 13.2526 7.39855 13.3991 7.48507 13.5686C7.57158 13.738 7.61669 13.9256 7.61669 14.1158C7.61669 14.3061 7.57158 14.4936 7.48507 14.6631C7.39855 14.8325 7.27309 14.979 7.11898 15.0906C6.96487 15.2022 6.7865 15.2756 6.59851 15.3049C6.41052 15.3342 6.21827 15.3185 6.03752 15.2591C6.64436 16.2219 6.94247 17.3472 6.89194 18.4842C6.86769 18.7864 6.73028 19.0683 6.50717 19.2736C6.28406 19.4788 5.9917 19.5923 5.68854 19.5913C5.38634 19.5671 5.10444 19.4297 4.89918 19.2066C4.69392 18.9834 4.58043 18.6911 4.5814 18.3879C4.61853 17.904 4.54212 17.4181 4.35826 16.9689C4.17441 16.5197 3.88819 16.1196 3.5224 15.8006C2.27036 16.371 1.25163 17.3533 0.635984 18.5837C0.020341 19.8142 -0.155022 21.2184 0.139121 22.5625C0.433264 23.9066 1.17915 25.1092 2.25246 25.97C3.32577 26.8308 4.66167 27.2978 6.03752 27.2931C6.18766 27.2931 6.33632 27.3227 6.47502 27.3801C6.61373 27.4376 6.73976 27.5218 6.84591 27.628C6.95207 27.7341 7.03628 27.8602 7.09374 27.9989C7.15119 28.1376 7.18076 28.2862 7.18076 28.4364C7.18076 28.5865 7.15119 28.7352 7.09374 28.8739C7.03628 29.0126 6.95207 29.1386 6.84591 29.2448C6.73976 29.3509 6.61373 29.4351 6.47502 29.4926C6.33632 29.55 6.18766 29.5796 6.03752 29.5796C5.22112 29.5762 4.40984 29.4504 3.63071 29.2065C3.07086 29.8568 2.70856 30.6536 2.58653 31.503C2.46449 32.3523 2.58781 33.2189 2.94193 34.0005C3.29605 34.7821 3.86623 35.4461 4.58526 35.9144C5.30429 36.3827 6.1422 36.6357 7.00025 36.6436H7.14466C7.18061 36.0842 7.28157 35.5309 7.44551 34.9949C7.58891 34.7815 7.79689 34.6196 8.03897 34.533C8.28105 34.4464 8.54451 34.4396 8.79075 34.5136C9.03698 34.5876 9.25304 34.7385 9.40726 34.9443C9.56148 35.15 9.64576 35.3997 9.64774 35.6568C9.44695 36.3015 9.37552 36.9796 9.43754 37.652C9.49956 38.3244 9.69382 38.978 10.0092 39.5751C10.3245 40.1722 10.7547 40.7012 11.2751 41.1316C11.7954 41.5619 12.3957 41.8853 13.0414 42.083C14.4042 42.4786 15.8649 42.3586 17.145 41.746C17.7564 41.4701 18.3015 41.0663 18.7437 40.5619C19.1859 40.0574 19.5148 39.4641 19.7082 38.8218V29.5194C18.8082 29.4222 17.9472 29.0993 17.2051 28.5808C16.3142 29.2386 15.2434 29.6081 14.1364 29.6398C13.2758 29.6374 12.4363 29.373 11.7296 28.8816C11.4912 28.7015 11.3283 28.439 11.2727 28.1454C11.2171 27.8518 11.2727 27.548 11.4288 27.2931C11.6089 27.0547 11.8714 26.8918 12.165 26.8362C12.4586 26.7806 12.7624 26.8362 13.0173 26.9923C13.4108 27.2322 13.865 27.3541 14.3258 27.3434C14.7866 27.3327 15.2346 27.19 15.6166 26.9321C15.1868 26.2836 14.8921 25.555 14.7502 24.79C14.7092 24.4935 14.7802 24.1924 14.9493 23.9454C15.1184 23.6984 15.3735 23.5233 15.6648 23.4543C15.8095 23.4266 15.9584 23.428 16.1025 23.4586C16.2467 23.4892 16.3833 23.5482 16.5044 23.6323C16.6254 23.7164 16.7285 23.8237 16.8075 23.9482C16.8865 24.0726 16.9398 24.2115 16.9645 24.3568C17.0864 25.057 17.4171 25.704 17.9131 26.2129C18.4092 26.7219 19.0475 27.069 19.7443 27.2089V12.9365C18.9716 12.4446 18.0931 12.1435 17.1811 12.058C16.8357 12.3923 16.5724 12.802 16.4116 13.2551C16.2509 13.7081 16.1971 14.1921 16.2544 14.6694C16.2747 14.8172 16.2656 14.9676 16.2275 15.1119C16.1894 15.2562 16.1232 15.3915 16.0326 15.5101C15.942 15.6287 15.8288 15.7281 15.6996 15.8028C15.5704 15.8774 15.4277 15.9258 15.2797 15.945H15.1353C14.8628 15.933 14.6025 15.8289 14.397 15.6496C14.1914 15.4703 14.0529 15.2265 14.0041 14.9582C13.9058 14.1767 13.9839 13.383 14.2327 12.6356C14.0106 12.7521 13.7974 12.8849 13.5949 13.0328C13.3414 13.1901 13.0386 13.2476 12.745 13.1943C12.4515 13.1409 12.1883 12.9804 12.0064 12.7439C11.9173 12.6241 11.8528 12.4877 11.8166 12.3428C11.7805 12.1979 11.7734 12.0472 11.7958 11.8995C11.8181 11.7519 11.8695 11.6101 11.947 11.4824C12.0245 11.3546 12.1265 11.2435 12.2471 11.1554C13.3282 10.4011 14.5826 9.93266 15.8935 9.79379C17.2044 9.65491 18.5292 9.85011 19.7443 10.3612V2.2382H19.6842Z" fill="#10182E"/>
<path d="M38.4333 29.2065C37.6537 29.4485 36.8427 29.5742 36.0264 29.5796C35.7232 29.5796 35.4324 29.4591 35.2181 29.2447C35.0037 29.0303 34.8832 28.7395 34.8832 28.4363C34.8832 28.1331 35.0037 27.8423 35.2181 27.6279C35.4324 27.4135 35.7232 27.2931 36.0264 27.2931C37.3919 27.2832 38.7134 26.8092 39.7738 25.949C40.8342 25.0887 41.5705 23.8934 41.8616 22.5593C42.1528 21.2252 41.9816 19.8318 41.376 18.6079C40.7705 17.384 39.7667 16.4025 38.5295 15.8246C38.1666 16.1466 37.8816 16.5467 37.6961 16.995C37.5105 17.4432 37.4293 17.9277 37.4585 18.412C37.4595 18.7151 37.346 19.0075 37.1407 19.2306C36.9355 19.4537 36.6536 19.5911 36.3514 19.6154C36.0555 19.6154 35.7713 19.4996 35.5599 19.2926C35.3484 19.0856 35.2265 18.8041 35.2202 18.5082C35.1584 17.3701 35.4574 16.2414 36.0746 15.2831H36.0144C35.8337 15.3425 35.6414 15.3582 35.4534 15.3289C35.2654 15.2996 35.0871 15.2262 34.933 15.1146C34.7788 15.0031 34.6534 14.8566 34.5669 14.6871C34.4803 14.5177 34.4352 14.3301 34.4352 14.1399C34.4352 13.9496 34.4803 13.7621 34.5669 13.5926C34.6534 13.4232 34.7788 13.2767 34.933 13.1651C35.0871 13.0535 35.2654 12.9801 35.4534 12.9508C35.6414 12.9215 35.8337 12.9372 36.0144 12.9966C37.298 12.9934 38.5641 13.2945 39.7089 13.8751C40.0017 13.0123 40.0987 12.0951 39.9929 11.1901C39.8871 10.2851 39.5811 9.41498 39.0972 8.64296C38.6132 7.87094 37.9634 7.21637 37.195 6.72675C36.4266 6.23713 35.5588 5.92475 34.6546 5.81229C34.6275 6.8921 34.3733 7.95411 33.9084 8.92911C33.8097 9.11997 33.6616 9.2809 33.4796 9.39518C33.2976 9.50945 33.0883 9.57291 32.8735 9.57895C32.7073 9.57648 32.5434 9.53961 32.3922 9.47065C32.2564 9.4074 32.1345 9.31783 32.0336 9.20711C31.9327 9.09639 31.8548 8.96674 31.8045 8.82569C31.7541 8.68463 31.7322 8.53497 31.7402 8.38539C31.7481 8.23582 31.7856 8.0893 31.8506 7.95435C32.4818 6.61359 32.5554 5.07721 32.0552 3.68226C31.6892 2.72936 31.0758 1.89128 30.2781 1.25439C29.4804 0.617503 28.5273 0.204844 27.517 0.0589422C26.5067 -0.0869596 25.4758 0.039174 24.5305 0.424344C23.5852 0.809514 22.7597 1.43979 22.1391 2.25021V8.65233C22.7955 8.58124 23.4199 8.3315 23.9442 7.93029C24.1927 7.74595 24.5025 7.66435 24.8095 7.70245C25.1165 7.74054 25.3971 7.8954 25.5929 8.13487C25.7524 8.39082 25.8101 8.69734 25.7543 8.99375C25.6986 9.29016 25.5336 9.55485 25.2921 9.7354C24.3646 10.4308 23.2586 10.8481 22.103 10.9388V17.4853C23.5054 17.756 24.7623 18.5255 25.641 19.6515C26.5812 19.3144 27.6029 19.2782 28.5645 19.5477C29.5262 19.8172 30.3802 20.3792 31.0082 21.1557C31.0983 21.2727 31.1645 21.4062 31.2029 21.5487C31.2414 21.6912 31.2514 21.8399 31.2324 21.9863C31.2134 22.1327 31.1658 22.2739 31.0922 22.4019C31.0187 22.5299 30.9206 22.6421 30.8037 22.7322C30.6867 22.8223 30.5532 22.8884 30.4107 22.9269C30.2681 22.9654 30.1194 22.9754 29.9731 22.9564C29.8267 22.9374 29.6855 22.8898 29.5575 22.8162C29.4295 22.7426 29.3173 22.6446 29.2272 22.5276C28.9917 22.2125 28.674 21.9683 28.3088 21.8218C27.9437 21.6753 27.5453 21.6322 27.1573 21.6973C27.0194 21.7046 26.8824 21.7248 26.7482 21.7574C26.9498 22.498 26.9989 23.2718 26.8926 24.0319C26.8438 24.3002 26.7052 24.544 26.4997 24.7233C26.2942 24.9025 26.0339 25.0067 25.7614 25.0187H25.6049C25.3117 24.9631 25.0496 24.8006 24.8695 24.5626C24.6894 24.3247 24.6041 24.0283 24.6302 23.731C24.6831 23.2561 24.6412 22.7754 24.5069 22.3168C24.3726 21.8582 24.1487 21.4308 23.848 21.0595C23.3998 20.4928 22.792 20.0735 22.103 19.856V31.7698C22.6969 32.3116 23.4464 32.6527 24.2451 32.7445C25.2053 32.8647 26.1741 32.6009 26.9407 32.0104C27.1874 31.8333 27.4919 31.7559 27.7932 31.7938C28.0945 31.8318 28.3703 31.9822 28.5653 32.215C28.7383 32.457 28.8156 32.7544 28.7823 33.0499C28.749 33.3455 28.6074 33.6182 28.3848 33.8156C27.3479 34.6055 26.0781 35.0288 24.7746 35.019C24.5021 35.0366 24.2288 35.0366 23.9563 35.019C23.3169 34.9431 22.6924 34.7727 22.103 34.5135V38.7736H22.1873C22.397 39.4204 22.7414 40.0154 23.1977 40.5194C23.654 41.0234 24.212 41.4251 24.8348 41.6979C26.1232 42.311 27.5916 42.4308 28.9624 42.0348C30.2599 41.64 31.3481 40.7471 31.9886 39.5517C32.6292 38.3563 32.77 36.9558 32.3801 35.6568C32.3857 35.403 32.4714 35.1574 32.625 34.9553C32.7785 34.7532 32.9921 34.6047 33.2351 34.5313C33.4781 34.4579 33.7381 34.4632 33.9779 34.5464C34.2178 34.6297 34.4251 34.7867 34.5703 34.9949C34.7506 35.5289 34.8677 36.0823 34.9193 36.6436H35.0637C35.9259 36.6448 36.7702 36.3985 37.4964 35.9338C38.2226 35.4691 38.8 34.8056 39.16 34.0222C39.52 33.2388 39.6474 32.3685 39.5271 31.5148C39.4068 30.6611 39.0439 29.8599 38.4814 29.2065H38.4333Z" fill="#10182E"/>
</svg>
